logo/elo.svg

<?xml version="1.0" encoding="UTF-8"?>
<svg width="512px" height="197px" viewBox="0 0 512 197" version="1.1" xmlns="http://www.w3.org/2000/svg" preserveAspectRatio="xMidYMid">
    <title>elo</title>
    <g>
        <g>
            <path d="M79.8167916,43.3441044 C85.568446,41.4226005 91.7171758,40.3901014 98.1199512,40.3901014 C126.038117,40.3901014 149.347318,60.220168 154.686406,86.5779158 L194.261755,78.5052553 C185.179108,33.7109223 145.593949,0 98.1199512,0 C87.2414292,0 76.7909638,1.77290785 67.0143389,5.03947477 L79.8167916,43.3441044 Z" fill="#FFCC00"></path>
            <path d="M33.111385,171.603675 L59.8742116,141.345914 C47.9275105,130.76223 40.3900497,115.31605 40.3900497,98.1070424 C40.3900497,80.9109433 47.9172351,65.4719929 59.8561393,54.9012173 L33.0908858,24.6388608 C12.8023494,42.6139298 7.3378154e-14,68.8695947 7.3378154e-14,98.1070424 C7.3378154e-14,127.362562 12.8074613,153.625818 33.111385,171.603675 Z" fill="#00A0DE"></path>
            <path d="M154.676079,109.68987 C149.313755,136.035225 126.030372,155.826514 98.1199512,155.826514 C91.7151104,155.826514 85.5483082,154.793808 79.7992356,152.862132 L66.9787105,191.182226 C76.7579172,194.446093 87.2290368,196.214085 98.1199512,196.214085 C145.547994,196.214085 185.128505,162.559238 194.246264,117.80642 L154.676079,109.68987 Z" fill="#EC3413"></path>
        </g>
        <path d="M228.869272,142.621822 C227.573226,140.521299 225.810398,137.162423 224.749809,134.690126 C218.482834,120.140335 218.18335,105.083486 223.476483,90.628704 C229.294747,74.7771877 240.411307,62.6413466 254.773662,56.4616356 C272.831038,48.6909898 292.802017,50.2230604 310.108099,60.4917696 C321.101768,66.7990197 328.895598,76.5374346 334.813518,90.3054671 L335.362813,91.6438214 L335.362813,91.6438214 L336.38724,94.3040713 C336.551981,94.7329669 336.714471,95.1504059 336.875831,95.550063 L228.869272,142.621822 Z M264.93497,79.8193733 C252.111863,85.3304073 245.50203,97.3588471 246.860038,111.462509 L301.179326,88.0846335 C291.838503,77.1064554 279.681491,73.4682332 264.93497,79.8193733 Z M328.949299,144.722862 L307.953359,130.685293 L307.922894,130.716274 L306.798277,129.957752 C303.557131,135.217838 298.499454,139.478266 292.117849,142.245401 C279.976328,147.525625 268.723967,146.167617 260.643561,139.08119 L259.900529,140.21097 C259.892784,140.198062 259.890202,140.188251 259.877294,140.188251 L246.096352,160.804671 C249.516674,163.18196 253.190524,165.195736 257.048713,166.804692 C272.272344,173.127949 287.847095,172.835693 303.19052,166.161832 C314.289525,161.352522 322.997816,154.017729 328.949299,144.722862 Z M374.627421,26.0992099 L374.627421,140.718545 L392.446242,147.940773 L382.321079,171.56753 L362.6501,163.376625 C358.235283,161.465603 355.23011,158.539431 352.955059,155.237355 C350.780181,151.870734 349.153153,147.251442 349.153153,141.030939 L349.153153,26.0992099 L374.627421,26.0992099 Z M420.791948,111.519308 C420.802275,101.758173 425.111756,93.0059925 431.931745,87.0570913 L413.649239,66.6709642 C401.249025,77.6315863 393.439705,93.6467864 393.424649,111.490908 C393.404076,129.34071 401.20307,145.373466 413.590375,156.361971 L431.852226,135.955707 C425.065284,129.983569 420.784203,121.257206 420.791948,111.519308 Z M453.275706,144.051603 C449.675694,144.041276 446.209417,143.446954 442.976016,142.370874 L434.245005,168.331547 C440.211979,170.334996 446.603911,171.426566 453.247307,171.436952 C482.195597,171.465292 506.368139,150.925292 511.968502,123.619521 L485.131579,118.139468 C482.079934,132.940206 468.975415,144.06193 453.275706,144.051603 Z M453.355225,51.6630861 C446.719574,51.6554232 440.330224,52.7340843 434.370995,54.7194611 L443.025586,80.7033694 C446.268798,79.6324536 449.735075,79.0407132 453.329923,79.0407132 C469.065776,79.0562038 482.180623,90.2440211 485.160495,105.086068 L512,99.6416431 C506.476057,72.2971449 482.326751,51.6807245 453.355225,51.6630861 Z" fill="#000000"></path>
    </g>
</svg>

<svg viewBox="0 0 512 197" xmlns="http://www.w3.org/2000/svg"><path fill="#FC0" d="M79.81 43.34c5.75-1.93 11.9-2.96 18.3-2.96 27.91 0 51.22 19.83 56.56 46.18l39.57-8.08C185.15 33.68 145.57-.03 98.09-.03 87.21-.03 76.76 1.74 66.98 5l12.8 38.3Z"/><path fill="#00A0DE" d="M33.11 171.6l26.76-30.26c-11.95-10.59-19.49-26.03-19.49-43.24 0-17.2 7.52-32.64 19.46-43.21L33.07 24.62C12.78 42.59-.03 68.85-.03 98.08c0 29.25 12.8 55.51 33.11 73.49Z"/><path fill="#EC3413" d="M154.67 109.68c-5.37 26.34-28.65 46.13-56.56 46.13 -6.41 0-12.58-1.04-18.33-2.97l-12.83 38.32c9.77 3.26 20.25 5.03 31.14 5.03 47.42 0 87-33.66 96.12-78.41l-39.58-8.12Z"/><path d="M228.86 142.62c-1.3-2.11-3.06-5.46-4.12-7.94 -6.27-14.55-6.57-29.61-1.28-44.07 5.81-15.86 16.93-27.99 31.29-34.17 18.05-7.78 38.02-6.24 55.33 4.03 10.99 6.3 18.78 16.04 24.7 29.81l.54 1.33v0l1.02 2.66c.16.42.32.84.48 1.24l-108.01 47.07Zm36.06-62.81c-12.83 5.51-19.44 17.53-18.08 31.64l54.31-23.38c-9.35-10.98-21.5-14.62-36.25-8.27Zm64.01 64.9l-21-14.04 -.04.03 -1.13-.76c-3.25 5.26-8.3 9.52-14.69 12.28 -12.15 5.28-23.4 3.92-31.48-3.17l-.75 1.12c-.01-.02-.02-.03-.03-.03l-13.79 20.61c3.42 2.37 7.09 4.39 10.95 6 15.22 6.32 30.79 6.03 46.14-.65 11.09-4.81 19.8-12.15 25.75-21.44ZM374.6 26.08v114.61l17.81 7.22 -10.13 23.62 -19.68-8.2c-4.42-1.92-7.42-4.84-9.7-8.14 -2.18-3.37-3.81-7.99-3.81-14.21V26.04h25.47Zm46.16 85.42c.01-9.77 4.31-18.52 11.13-24.47L413.6 66.64c-12.41 10.96-20.21 26.97-20.23 44.81 -.03 17.84 7.77 33.88 20.16 44.87l18.26-20.41c-6.79-5.98-11.07-14.7-11.07-24.44Zm32.48 32.53c-3.61-.02-7.07-.61-10.3-1.69l-8.74 25.96c5.96 2 12.35 3.09 19 3.1 28.94.02 53.12-20.52 58.72-47.82l-26.84-5.49c-3.06 14.8-16.16 25.92-31.86 25.91Zm.07-92.39c-6.64-.01-13.03 1.07-18.99 3.05l8.65 25.98c3.24-1.08 6.7-1.67 10.3-1.67 15.73.01 28.85 11.2 31.83 26.04l26.83-5.45c-5.53-27.35-29.68-47.97-58.65-47.98Z"/></svg>
